X: 20222
T: NEW YORK HORNPIPE
C:
%R: hornpipe, reel
B: Elias Howe "The Musician's Companion" 1843 p.22 #2
S: http://imslp.org/wiki/The_Musician's_Companion_(Howe,_Elias)
Z: 2015 John Chambers <jc:trillian.mit.edu>
M: 2/4
L: 1/16
K: D
% - - - - - - - - - - - - - - - - - - - - - - - - -
|:\
d2AG F2d2 | A2f2 d2a2 | f2d2 cdef | gfed c2A2 |\
d2AG F2d2 | A2f2 d2d2 | cdef gfec | d2f2 d4 :|
|:\
DFAB AGEF | DFAd f2e2 | dcde fdgf | edcB A4 |\
DFAB AGEF | DFAd f2e2 | dcde fdec | d2f2 d4 :|
% - - - - - - - - - - - - - - - - - - - - - - - - -

% (Continued from previous page)

%%sep 1 1 500

